!!!PDT:	1923
!!!LANG: Non-Tone
!!!LING_GROUP: Siouan
!!!REG: Dakotas
!!!COM: Anon.
!!!OTL: Whose Track Is It?
!!!MPN: Haretupa [Wolf Head]
!!!ODT: <1918//
!!!MPN: Marolipa [Buffalo Bull Head, Ben Benson]
!!!MLC: Fort Berthold Reservation, North Dakota, United States of America
!! Song was recorded during either the summer of 1912, 1915, or 1918.
!!!AGN: monody
!!!SOCIAL_FUNCTION: Mandan and Hidatsa Miscellaneous Songs
!!!AMT: irregular
!!!RWG: Transcribed pitches, durations, and meters are only approximate.
!! Drum not recorded.
**kern
*ICvox
*Imale
*clefF4
*k[b-e-a-d-g-]
*M2/4
*MM58
=1-
16.d-
32d-
16d-
16d-
8d-
8B-
=2
4d-
8d-
8r
=3
16.d-
32d-
16d-
16d-
8d-
16d-
16B-;
=4
4d-
8d-
8r
=5
8d-
16.B-
32B-
8d-
8B-
=6
4d-
8d-
8r
*M3/4
=7
8e-
16.e-
32e-
4e-
16e-
8d-
32B-
32B-
*M2/4
=8
16.d-
32d-
8d-
4G-
*M3/4
=9
4e-
16d-
8.d-
8d-
8B-
=10
16d-
8.d-
16d-
8.d-
*M3/4
=11
16d-
8.d-
8d-
8B-
8B-
8B-
=12
8d-
8B-
8d-
8B-
8B-
8B-
=13
8d-
8d-
16B-
16B-
8B-
4B-
==
*-
!!!CNT: Mandan
!!!TXO: Mandan
!!!OCY: United States
!!!OCL: Frances Densmore
!!!YOR: Frances Densmore, "Mandan and Hidatsa Music",
!!!YOR: Bulletin 80, page 171, No. 103
!!!PPR: Smithsonian Institution, Bureau of American Ethnology
!!!PPR: Government Printing Office
!!!PDT: 1923
!!!PPP: Washington, DC, United States of America
!!!YEC: Electronic Copyright 2000 David Huron
!!!YER: August 2000
!!!YEN: United States of America
!!!ENC: David Huron
!!!RDT: August 18, 2000
!!!EEV: Release 1.0
!!!AIN: tom, vox
